build/img/parteners/amazon-logo.svg

<svg width="125" height="48" viewBox="0 0 125 48" fill="none" xmlns="http://www.w3.org/2000/svg">
<g style="mix-blend-mode:luminosity">
<path fill-rule="evenodd" clip-rule="evenodd" d="M76.6508 37.8069C69.4708 42.4973 59.0639 44.9998 50.1036 44.9998C37.54 44.9998 26.2295 40.8814 17.6726 34.0316C17.0003 33.493 17.6027 32.7589 18.4094 33.1784C27.644 37.9403 39.062 40.8051 50.8566 40.8051C58.8111 40.8051 67.5615 39.3465 75.6074 36.3196C76.8229 35.862 77.8394 37.0251 76.6508 37.8069Z" fill="#FF9900"/>
<path fill-rule="evenodd" clip-rule="evenodd" d="M79.6359 34.78C78.7215 33.7409 73.5692 34.2891 71.2565 34.5322C70.552 34.6084 70.4444 34.065 71.079 33.6741C75.1827 31.1144 81.9162 31.8533 82.7015 32.7113C83.4867 33.574 82.4971 39.5563 78.6409 42.4115C78.0493 42.8501 77.4846 42.6165 77.7481 42.035C78.614 40.1187 80.5555 35.8239 79.6359 34.78Z" fill="#FF9900"/>
<path fill-rule="evenodd" clip-rule="evenodd" d="M71.4182 15.6036V13.1154C71.4182 12.7388 71.7409 12.4862 72.1282 12.4862H84.6972C85.1006 12.4862 85.4233 12.7436 85.4233 13.1154V15.2461C85.4179 15.6036 85.0791 16.0708 84.4767 16.8096L77.9636 25.0513C80.3838 24.9988 82.9385 25.3182 85.1328 26.4145C85.6276 26.6624 85.7621 27.0247 85.7998 27.3822V30.0373C85.7998 30.3995 85.348 30.8238 84.8747 30.6045C81.0077 28.8074 75.8715 28.612 71.5957 30.6236C71.1601 30.8333 70.7029 30.4138 70.7029 30.0516V27.53C70.7029 27.1248 70.7083 26.4336 71.1655 25.8187L78.7112 16.2281H72.1443C71.7409 16.2281 71.4182 15.9754 71.4182 15.6036Z" fill="black"/>
<path fill-rule="evenodd" clip-rule="evenodd" d="M25.5684 31.1289H21.7444C21.3787 31.105 21.0883 30.8619 21.0614 30.5521V13.1583C21.0614 12.8104 21.3895 12.5339 21.7982 12.5339H25.364C25.7351 12.5482 26.0309 12.8008 26.0578 13.1154V15.3892H26.1277C27.0582 13.1917 28.8061 12.1669 31.1618 12.1669C33.5551 12.1669 35.0503 13.1917 36.1259 15.3892C37.051 13.1917 39.1539 12.1669 41.4074 12.1669C43.0101 12.1669 44.7635 12.7532 45.8337 14.0688C47.0439 15.5322 46.7964 17.6581 46.7964 19.5219L46.7911 30.4997C46.7911 30.8476 46.463 31.1289 46.0543 31.1289H42.2357C41.8538 31.105 41.5473 30.8333 41.5473 30.4997V21.2808C41.5473 20.5468 41.6225 18.7163 41.4397 18.0204C41.1546 16.8526 40.2995 16.5236 39.1916 16.5236C38.2665 16.5236 37.2984 17.0718 36.9058 17.9489C36.5132 18.826 36.5508 20.2941 36.5508 21.2808V30.4997C36.5508 30.8476 36.2228 31.1289 35.814 31.1289H31.9954C31.6082 31.105 31.307 30.8333 31.307 30.4997L31.3016 21.2808C31.3016 19.3408 31.662 16.4855 28.9459 16.4855C26.1976 16.4855 26.3052 19.2693 26.3052 21.2808V30.4997C26.3052 30.8476 25.9771 31.1289 25.5684 31.1289Z" fill="black"/>
<path fill-rule="evenodd" clip-rule="evenodd" d="M96.2442 12.1669C101.918 12.1669 104.989 16.4855 104.989 21.9768C104.989 27.2821 101.596 31.4911 96.2442 31.4911C90.6723 31.4911 87.639 27.1725 87.639 21.7909C87.639 16.3759 90.71 12.1669 96.2442 12.1669ZM96.2765 15.7181C93.4583 15.7181 93.2808 19.1215 93.2808 21.2427C93.2808 23.3686 93.2431 27.9066 96.2442 27.9066C99.2077 27.9066 99.3475 24.2457 99.3475 22.0149C99.3475 20.5468 99.2776 18.7926 98.7774 17.4007C98.3471 16.19 97.492 15.7181 96.2765 15.7181Z" fill="black"/>
<path fill-rule="evenodd" clip-rule="evenodd" d="M112.347 31.1289H108.539C108.157 31.105 107.851 30.8333 107.851 30.4997L107.845 13.1011C107.878 12.7818 108.195 12.5339 108.582 12.5339H112.126C112.46 12.5482 112.734 12.7484 112.809 13.0201V15.6799H112.879C113.95 13.3013 115.45 12.1669 118.091 12.1669C119.807 12.1669 121.479 12.715 122.555 14.2166C123.555 15.6084 123.555 17.9489 123.555 19.6315V30.5807C123.512 30.8858 123.195 31.1289 122.818 31.1289H118.984C118.634 31.105 118.344 30.8762 118.306 30.5807V21.1331C118.306 19.2311 118.553 16.4474 115.913 16.4474C114.982 16.4474 114.127 17.0003 113.702 17.8393C113.164 18.9022 113.095 19.9605 113.095 21.1331V30.4997C113.089 30.8476 112.756 31.1289 112.347 31.1289Z" fill="black"/>
<path fill-rule="evenodd" clip-rule="evenodd" d="M61.3985 22.8204C61.3985 24.1408 61.4362 25.2419 60.6832 26.4146C60.0755 27.3679 59.1074 27.9542 58.0371 27.9542C56.5688 27.9542 55.7083 26.9627 55.7083 25.4993C55.7083 22.6107 58.6287 22.0864 61.3985 22.0864V22.8204ZM65.2548 31.0812C65.002 31.2814 64.6363 31.2957 64.3512 31.1622C63.0819 30.2279 62.8507 29.7942 62.1569 28.9028C60.0593 30.7999 58.5696 31.3672 55.8535 31.3672C52.6319 31.3672 50.131 29.6083 50.131 26.0857C50.131 23.3353 51.8091 21.4619 54.2078 20.5467C56.2838 19.7364 59.1827 19.5934 61.3985 19.3693V18.9308C61.3985 18.1252 61.4685 17.1719 60.9306 16.476C60.4681 15.8515 59.5753 15.5941 58.7847 15.5941C57.3272 15.5941 56.031 16.2567 55.7137 17.6295C55.6492 17.9346 55.3964 18.2349 55.0468 18.2492L51.3412 17.8964C51.0292 17.8345 50.6796 17.6104 50.7711 17.1862C51.6208 13.2012 55.6868 12 59.3225 12C61.1834 12 63.6144 12.4385 65.0827 13.6874C66.9435 15.2271 66.7661 17.2815 66.7661 19.5171V24.7986C66.7661 26.386 67.5083 27.0819 68.2074 27.9399C68.4495 28.245 68.5032 28.612 68.1913 28.8408C67.4114 29.4176 66.0238 30.4901 65.2601 31.0907L65.2548 31.0812Z" fill="black"/>
<path fill-rule="evenodd" clip-rule="evenodd" d="M11.2675 22.8204C11.2675 24.1408 11.3051 25.2419 10.5522 26.4145C9.94443 27.3679 8.98172 27.9542 7.90606 27.9542C6.43779 27.9542 5.58265 26.9627 5.58265 25.4993C5.58265 22.6107 8.50305 22.0864 11.2675 22.0864V22.8204ZM15.1237 31.0812C14.8709 31.2814 14.5052 31.2957 14.2202 31.1622C12.9509 30.2279 12.725 29.7941 12.0258 28.9028C9.92829 30.7999 8.44389 31.3672 5.72248 31.3672C2.50627 31.3672 0 29.6082 0 26.0856C0 23.3352 1.6834 21.4619 4.07673 20.5467C6.15275 19.7364 9.05164 19.5934 11.2675 19.3693V18.9308C11.2675 18.1252 11.3374 17.1719 10.805 16.4759C10.337 15.8515 9.44425 15.5941 8.65902 15.5941C7.20151 15.5941 5.89997 16.2567 5.58265 17.6295C5.51811 17.9346 5.26533 18.2349 4.92112 18.2492L1.21011 17.8964C0.898171 17.8345 0.553961 17.6104 0.640014 17.1862C1.49516 13.2012 5.55576 12 9.19147 12C11.0524 12 13.4833 12.4385 14.9516 13.6874C16.8125 15.2271 16.635 17.2815 16.635 19.5171V24.7986C16.635 26.3859 17.3772 27.0819 18.0764 27.9399C18.3238 28.245 18.3776 28.612 18.0656 28.8408C17.2858 29.4176 15.8982 30.4901 15.1345 31.0907L15.1237 31.0812Z" fill="black"/>
</g>
</svg>

<svg width="125" height="48" fill="none" xmlns="http://www.w3.org/2000/svg"><g style="mix-blend-mode:luminosity" fill-rule="evenodd" clip-rule="evenodd"><path d="M76.65 37.807C69.47 42.497 59.065 45 50.105 45 37.54 45 26.23 40.88 17.673 34.032c-.673-.539-.07-1.273.736-.854 9.235 4.762 20.653 7.627 32.448 7.627 7.954 0 16.704-1.459 24.75-4.485 1.216-.458 2.232.705 1.044 1.487Z" fill="#F90"/><path d="M79.636 34.78c-.914-1.04-6.067-.49-8.38-.248-.704.076-.812-.467-.177-.858 4.104-2.56 10.837-1.82 11.623-.963.785.863-.205 6.845-4.061 9.7-.592.44-1.156.206-.893-.376.866-1.916 2.807-6.211 1.888-7.255Z" fill="#F90"/><path d="M71.418 15.604v-2.489c0-.376.323-.629.71-.629h12.57c.403 0 .725.258.725.63v2.13c-.005.358-.344.825-.946 1.564l-6.513 8.241c2.42-.052 4.975.267 7.169 1.364.495.247.63.61.667.967v2.655c0 .363-.452.787-.925.568-3.867-1.798-9.004-1.993-13.28.019-.435.21-.892-.21-.892-.572V27.53c0-.405.005-1.096.462-1.711l7.546-9.59h-6.567c-.403 0-.726-.254-.726-.625Zm-45.85 15.525h-3.824c-.365-.024-.656-.267-.683-.577V13.158c0-.348.329-.624.737-.624h3.566c.371.014.667.267.694.581v2.274h.07c.93-2.197 2.678-3.222 5.034-3.222 2.393 0 3.888 1.025 4.964 3.222.925-2.197 3.028-3.222 5.281-3.222 1.603 0 3.357.586 4.427 1.902 1.21 1.463.962 3.59.962 5.453L46.791 30.5c0 .348-.328.629-.737.629h-3.818c-.382-.024-.689-.296-.689-.63v-9.218c0-.734.076-2.565-.107-3.26-.285-1.168-1.14-1.497-2.248-1.497-.925 0-1.894.548-2.286 1.425-.393.877-.355 2.345-.355 3.332V30.5c0 .348-.328.629-.737.629h-3.819c-.387-.024-.688-.296-.688-.63l-.005-9.218c0-1.94.36-4.796-2.356-4.796-2.748 0-2.64 2.784-2.64 4.796V30.5c0 .348-.329.629-.738.629Zm70.676-18.962c5.674 0 8.745 4.318 8.745 9.81 0 5.305-3.393 9.514-8.745 9.514-5.572 0-8.605-4.319-8.605-9.7 0-5.415 3.071-9.624 8.605-9.624Zm.032 3.551c-2.818 0-2.995 3.404-2.995 5.525 0 2.126-.038 6.664 2.963 6.664 2.964 0 3.103-3.661 3.103-5.892 0-1.468-.07-3.222-.57-4.614-.43-1.211-1.285-1.683-2.5-1.683Zm16.071 15.411h-3.808c-.382-.024-.688-.296-.688-.63l-.006-17.398c.033-.32.35-.567.737-.567h3.544c.334.014.608.214.683.486v2.66h.07c1.071-2.379 2.571-3.513 5.212-3.513 1.716 0 3.388.548 4.464 2.05 1 1.391 1 3.732 1 5.414v10.95c-.043.305-.36.548-.737.548h-3.834c-.35-.024-.64-.253-.678-.548v-9.448c0-1.902.247-4.686-2.393-4.686-.931 0-1.786.553-2.211 1.392-.538 1.063-.607 2.122-.607 3.294V30.5c-.006.348-.339.629-.748.629ZM61.398 22.82c0 1.32.038 2.422-.715 3.595-.608.953-1.576 1.54-2.646 1.54-1.468 0-2.329-.992-2.329-2.456 0-2.888 2.92-3.413 5.69-3.413v.734Zm3.857 8.261c-.253.2-.619.215-.904.081-1.27-.934-1.5-1.368-2.194-2.26-2.098 1.898-3.587 2.465-6.303 2.465-3.222 0-5.723-1.759-5.723-5.281 0-2.75 1.678-4.624 4.077-5.54 2.076-.81 4.975-.953 7.19-1.177v-.438c0-.806.07-1.76-.467-2.455-.463-.624-1.356-.882-2.146-.882-1.458 0-2.754.663-3.071 2.036-.065.305-.318.605-.667.62l-3.706-.354c-.312-.062-.661-.286-.57-.71.85-3.985 4.916-5.186 8.551-5.186 1.861 0 4.292.438 5.76 1.687 1.862 1.54 1.684 3.595 1.684 5.83V24.8c0 1.587.742 2.283 1.441 3.14.243.306.296.673-.016.902-.78.577-2.167 1.65-2.93 2.25l-.006-.01ZM11.268 22.82c0 1.32.037 2.422-.716 3.595-.608.953-1.57 1.54-2.646 1.54-1.468 0-2.323-.992-2.323-2.456 0-2.888 2.92-3.413 5.684-3.413v.734Zm3.856 8.261c-.253.2-.619.215-.904.081-1.27-.934-1.495-1.368-2.194-2.26-2.098 1.898-3.582 2.465-6.304 2.465C2.506 31.367 0 29.608 0 26.086c0-2.75 1.683-4.624 4.077-5.54 2.076-.81 4.975-.953 7.19-1.177v-.438c0-.806.07-1.76-.462-2.455-.468-.624-1.36-.882-2.146-.882-1.457 0-2.759.663-3.076 2.036-.065.305-.318.605-.662.62l-3.71-.354c-.313-.062-.657-.286-.571-.71C1.495 13.201 5.556 12 9.191 12c1.861 0 4.292.438 5.76 1.687 1.861 1.54 1.684 3.595 1.684 5.83V24.8c0 1.587.742 2.283 1.441 3.14.248.306.302.673-.01.902-.78.577-2.168 1.65-2.931 2.25l-.011-.01Z" fill="#000"/></g></svg>
